X:1
T:Vidimus stellam
T:William Byrd (c.1540-1623)
T:Vidimus stellam
T:© Choral Public Domain Library 2010
T:© Choral Public Domain Library 2010
T:© Choral Public Domain Library 2010
T:© Choral Public Domain Library 2010
C:William Byrd (c.1540-1623)
Z:© Choral Public Domain Library 2010
%%score [ 1 2 3 4 ]
L:1/8
M:4/4
K:F
V:1 treble nm="Alto" snm="A."
V:2 treble nm="Alto" snm="A."
V:3 treble-8 transpose=-12 nm="Tenor" snm="T."
V:4 bass nm="Bass" snm="B."
V:1
 [Cd]2 |[M:4/2] D12 D4 | D8 z8 | d16 | B8 c8- | c4 B4 A4 d4 | A6 G2 F4 D2 D2- | D2 E2 F4 G4 B4 | %8
w: |Vi- di-|mus|stel-|lam e-|* * jus in|O- ri- en- te, vi-|* di- mus stel- lam|
 A4 G2 F2 E2 F2 G4- | G4 ^F4 G8 | z4 B4 A6 G2 | F4 D4 z4 B4 | A12 A4 | A8 A8 | z4 A8 B4- | %15
w: e- * * * * *|* * jus|in O- ri-|en- te, in|O- ri-|en- te,|et ve-|
 B4 G4 G8 | z4 E2 F2 G6 F2 | E8 z4 C2 D2 | E6 D2 ^C4 E2 F2 | G6 F2 E4 E4- | E4 F4 G4 G4 | %21
w: * ni- mus,|cum mu- ne- ri-|bus, cum mu-|ne- ri- bus, cum mu-|ne- ri- bus a-|* do- ra- re|
 A6 =B2 c8 | z4 c2 B2 A8 | z4 G6 A2 B4- | B2 A2 G2 B2 A6 GF | E2 G2 F2 E2 D8 | z4 E8 ^F4 | %27
w: Do- mi- num,|Do- mi- num,|a- do- ra-|* * * re Do- * *|* * * mi- num,|a- do-|
 G4 G4 A6 =B2 | c4 c6 G2 C4 | z8 z4 D4- | D4 E4 F6 G2 | A4 =B4 ^c6 c2 | d8 z4 E4 | E4 F8 C4 | %34
w: ra- re Do- mi-|num, Do- mi- num,|a-|* do- ra- re|Do- * * mi-|num, a-|do- ra- re|
 F6 D2 F2 E2 D2 C2 | D6 D2 ^C8 | z4 A4 A4 B4- | B4 G4 A6 G2 | E2 F2 G8 F4 | E6 E2 | %40
w: Do- * * * * *|* mi- num,|a- do- ra-|* re Do- *||* mi-|
 !fermata!^F16 |] %41
w: num.|
V:2
 [Cd]2 |[M:4/2] z16 | z16 | z4 D6 E2 ^F4 | G4 B4 A2 F2 A4- | A4 G4 ^F8 | z4 B4 A6 G2 | %7
w: |||Vi- di- mus|stel- lam e- * *|* * jus|in O- ri-|
 F4 D4 z4 d4 | c6 B2 A4 D4 | z4 A4 B6 c2 | d4 G4 z4 B4 | A6 G2 F4 D4 | z4 F4 E6 D2 | ^C6 D2 E8 | %14
w: en- te, in|O- ri- en- te,|in O- ri-|en- te, in|O- ri- en- te,|in O- ri-|en- * te,|
 z4 F8 F4- | F2 G2 E4 D4 C2 D2 | E6 D2 C4 E2 F2 | G6 F2 E8 | z8 z4 C2 D2 | E6 D2 ^C8 | z8 z4 E4- | %21
w: et ve-|* * ni- mus, cum mu-|ne- ri- bus, cum mu-|ne- ri- bus,|cum mu-|ne- ri- bus|a-|
 E4 F4 G4 A4 | z4 E8 ^F4 | G8 z4 D4- | D4 E4 F8 | G4 A8 =B4 | c8 z2 C4 C2 | D4 E4 F6 D2 | C8 E8 | %29
w: * do- ra- re|Do- mi-|num, a-|* do- ra-|re Do- mi-|num, a- do-|ra- re Do- mi-|num, a-|
 F4 G8 A4 | =B6 ^c2 d8- | d8 z4 A4 | F4 B8 A4 | z8 z4 A4 | A4 B6 G2 A4- | A4 G4 A4 E4 | %36
w: do- ra- re|Do- mi- num,|_ a-|do- ra- re,|a-|do- ra- re Do-|* mi- num, a-|
 E4 F6 D2 G4- | G2 F2 D2 E2 F4 E4- | E4 D4 ^C4 D4- | D4 ^C4 | !fermata!D16 |] %41
w: do- ra- re Do-||* mi- num, Do-|* mi-|num.|
V:3
 [Dg]2 |[M:4/2] z4 A6 G2 A4 | B4 d4 c2 A2 c4- | c4 B4 A8 | G4 g4 f6 e2 | d12 A4 | f4 d8 B4 | %7
w: |Vi- di- mus|stel- lam e- * *||jus in O- ri-|en- te,|in O- ri-|
 d2 c2 B2 A2 G4 G2 g2- | g2 f2 e2 d2 c4 z2 G2 | c6 d2 B2 G2 B2 A2 | G4 d4 f6 B2 | d8 D8- | %12
w: en- * * * te, in O-|* ri- en- * te, in|O- ri- en- * * *|te, in O- ri-|en- te,|
 D8 z4 f4 | e6 d2 ^c4 A4 | z4 c8 d4- | d4 c4 =B4 A2 B2 | c6 d2 e4 c4- | c4 =B4 c8- | c4 G4 A4 A4 | %19
w: _ in|O- ri- en- te,|et ve-|* ni- mus, cum mu-|ne- ri- bus, cum|_ mu- ne-|* ri- bus, mu-|
 G4 G4 A8 | A8 =B4 c4- | c4 d4 e6 ^f2 | g8 z8 | G6 A2 B6 c2 | d4 G4 d8 | c6 de f2 e2 d4 | c8 A8 | %27
w: ne- ri- bus|a- do- ra-|* re Do- mi-|num,|a- do- ra- re|Do- mi- num,|Do- * * * * mi-|num, a-|
 =B4 c8 d4 | e6 ^f2 g4 e2 e2 | d4 =B2 c4 _B2 A4 | z8 d4 d4 | f4 d4 e6 e2 | %32
w: do- ra- re|Do- mi- num, a- do-|ra- re Do- mi- num,|a- do-|ra- re Do- mi-|
 d2 ef g2 f2 e2 d2 ^c2 =B2 | ^c4 d4 A8 | z4 d4 d4 f4- | f4 d4 e6 e2 | A8 d8 | d8 c8 | G8 A8- | %39
w: num, Do- * * * * * * *|* mi- num,|a- do- ra-|* re Do- mi-|num, a-|do- ra-|re Do-|
 A4 A4 | !fermata!A16 |] %41
w: * mi-|num.|
V:4
 [G,,D]2 |[M:4/2] z4 D,6 E,2 ^F,4 | G,4 B,4 A,6 G,2 | ^F,4 G,4 D,8 | z16 | D,12 D,4 | D,8 D8- | %7
w: |Vi- di- mus|stel- lam e- *|* * jus,||vi- di-|mus stel-|
 D8 B,8 | C12 B,4 | A,8 z4 G,4 | B,6 C2 D8 | D,8 z4 D,4 | F,6 G,2 A,8 | A,,16 | z4 F,8 B,,4- | %15
w: * lam|e- *|jus in|O- ri- en-|te, in|O- ri- en-|te,|et ve-|
 B,,4 C,4 G,,8 | z8 z4 C,2 D,2 | E,6 D,2 C,4 A,,2 B,,2 | C,6 B,,2 A,,8 | z8 A,,6 =B,,2 | %20
w: * ni- mus,|cum mu-|ne- ri- bus, cum mu-|ne- ri- bus|a- do-|
 ^C,4 D,4 z8 | z8 z4 A,,4 | =B,,4 C,8 D,4 | E,6 ^F,2 G,8- | G,8 D,8 | E,4 F,8 G,4 | %26
w: ra- re,|a-|do- ra- re|Do- mi- num,|_ a-|do- ra- re|
 A,6 =B,2 C4 A,2 A,2 | G,4 C,4 F,4 D,4 | A,8 C,8 | D,4 E,8 ^F,4 | G,4 E,4 D,8 | z8 A,4 A,4 | %32
w: Do- mi- num, a- do-|ra- re Do- mi-|num, a-|do- ra- re|Do- mi- num,|a- do-|
 B,8 G,4 A,4- | A,2 G,2 F,2 E,2 F,6 E,2 | D,2 C,2 D,6 C,2 B,,2 A,,2 | %35
w: ra- re Do-|||
 B,,4 B,,4"^We have seen his star in the East, and are come with gifts to adore the Lord." A,,4 A,,4 | %36
w: * mi- num, a-|
 ^C,4 D,8 G,,4 | B,,4 B,,4 A,,4 C,4- | C,4 B,,4 A,,8 | A,,8 | !fermata!D,16 |] %41
w: do- ra- re|Do- mi- num, Do-||mi-|num.|

